assets/images/icon/iconic/others/badges/castro-badge.svg

<svg height="44" viewBox="0 0 167 44" width="167" xmlns="http://www.w3.org/2000/svg" xmlns:xlink="http://www.w3.org/1999/xlink"><linearGradient id="a" x1="0%" x2="0%" y1="0%" y2="100%"><stop offset="0" stop-color="#00ccbf"/><stop offset="1" stop-color="#00b265"/></linearGradient><linearGradient id="b" x1="0%" x2="0%" y1="0%" y2="100%"><stop offset="0" stop-color="#151515"/><stop offset="1" stop-color="#353535"/></linearGradient><g fill="none"><rect fill="#fff" height="42" rx="8" stroke="#9aa0a6" stroke-width=".5" width="165" x="1" y="1"/><g transform="translate(8 8)"><path d="m9.76201953.00005469h8.47596087c2.8109375 0 4.216297 0 5.729336.4783789 1.6518085.60123438 2.9530157 1.90244141 3.5543047 3.5543047.4783242 1.51292968.4783242 2.91834374.4783242 5.72928124v8.47596087c0 2.8109375 0 4.216297-.4783242 5.729336-.601289 1.6518087-1.9024962 2.9530157-3.5543047 3.5541954-1.513039.4784335-2.9183985.4784335-5.729336.4784335h-8.47596087c-2.8109375 0-4.21635156 0-5.72928124-.4784335-1.65186329-.6011797-2.95307032-1.9023867-3.5543047-3.5541954-.4783789-1.513039-.4783789-2.9183985-.4783789-5.729336v-8.47596087c0-2.8109375 0-4.21635156.4783789-5.72928124.60123438-1.65186329 1.90244141-2.95307032 3.5543047-3.5543047 1.51292968-.4783789 2.91834374-.4783789 5.72928124-.4783789z" fill="url(#a)"/><path d="m14.0136719 1.83203125c6.7277382 0 12.1816406 5.44854297 12.1816406 12.16966405 0 6.7211484-5.4539024 12.1696914-12.1816406 12.1696914-6.72773831 0-12.18164065-5.448543-12.18164065-12.1696914 0-6.72112108 5.45390234-12.16966405 12.18164065-12.16966405z" fill="url(#b)"/><path d="m19.0824648 20.9418125-2.042414-2.8302148c1.2827226-.9380274 2.1159688-2.4530899 2.1159688-4.1628125 0-2.8475235-2.3106563-5.15588286-5.1610236-5.15588286-2.8503398 0-5.160996 2.30835936-5.160996 5.15588286 0 1.7172148.84057422 3.2380741 2.1328398 4.1751171l-2.04394527 2.8324024c-2.17273438-1.5710899-3.58654297-4.1251602-3.58654297-7.009461 0-4.77602339 3.87559375-8.64776167 8.65637504-8.64776167 4.7807812 0 8.6563749 3.87173828 8.6563749 8.64776167 0 2.8754688-1.4052226 5.4226759-3.5666367 6.9949688zm-5.0705429-9.0818164c1.1501328 0 2.0825273.9314649 2.0825273 2.0804492 0 1.1490117-.9323945 2.0804492-2.0825273 2.0804492-1.1501601 0-2.0825274-.9314375-2.0825274-2.0804492 0-1.1489843.9323673-2.0804492 2.0825274-2.0804492z" fill="#fff"/></g><path d="m6.92185976 16c3.47663764 0 5.84326454-1.8779344 6.41921354-5.0757882h-2.3352114c-.4712311 1.8672032-1.96869845 2.9725017-4.07353027 2.9725017-2.77502703 0-4.53428953-2.2857143-4.53428953-5.90207906 0-3.58417171 1.78020608-5.8913481 4.52381766-5.8913481 2.05247295 0 3.66513004 1.29845739 4.08400214 3.28370218h2.3247397c-.3979285-3.23004689-2.9844632-5.38698852-6.40874184-5.38698852-4.22013534 0-6.92185976 3.09054325-6.92185976 7.99463444 0 4.93628436 2.68078084 8.00536556 6.92185976 8.00536556zm12.25200634-1.9959759c1.6859597 0 2.9635194-1.1052985 2.9635194-2.6398391v-.9121394l-2.7645553.1931589c-1.5498264.0965795-2.356155.6867874-2.356155 1.7169685 0 .9979879.8482157 1.6418511 2.1571909 1.6418511zm-.6073645 1.8564721c-2.2723806 0-3.8431507-1.3735748-3.8431507-3.455399 0-2.0389001 1.5393546-3.21931596 4.3457971-3.40174377l3.0682375-.18242797v-.9014084c0-1.33065061-.8691595-2.06036217-2.3875706-2.06036217-1.2356723 0-2.1362471.65459418-2.3352113 1.66331317h-2.1257754c.0628307-2.06036216 1.9686984-3.5841717 4.5238176-3.5841717 2.7750271 0 4.5657048 1.50234745 4.5657048 3.80952385v7.99463439h-2.1676625v-1.9423206h-.052359c-.6283081 1.2662644-2.0420011 2.0603622-3.5918275 2.0603622zm7.9062092-8.45606969c0 1.60965788 1.0157645 2.68276329 3.0682373 3.19785389l2.0315293.5150905c1.1937852.3112005 1.6440726.6975183 1.6440726 1.437961 0 .9443326-.890103 1.5452717-2.3037961 1.5452717-1.4451084 0-2.3247396-.6116701-2.5027601-1.7276996h-2.2409654c.1675488 2.1032865 1.9791704 3.5090543 4.6285358 3.5090543 2.7540834 0 4.6808946-1.4379611 4.6808946-3.5197853 0-1.7169685-.8482158-2.56472175-3.14154-3.13346742l-1.8849241-.46143542c-1.2042569-.30046935-1.7697342-.78336685-1.7697342-1.49161632 0-.92287049.8586876-1.5345405 2.1467191-1.5345405 1.2985031 0 2.1676626.64386322 2.2619088 1.6740443h2.1362472c-.052359-2.02816912-1.8535087-3.46613015-4.3457971-3.46613015-2.61795 0-4.4086277 1.40576798-4.4086277 3.45539902zm11.5294519-5.93427227v2.61837688h-1.5707702v1.83501002h1.5707702v6.74983236c0 2.2535211.8796311 3.1441985 3.1520118 3.1441985.4921747 0 1.0262363-.0536553 1.2775596-.1180415v-1.83501c-.1466052.021462-.5340618.0536551-.7749132.0536551-.9529338 0-1.3927495-.4721662-1.3927495-1.4808852v-6.51374926h2.1781344v-1.83501002h-2.1781344v-2.61837688zm6.3563826 14.27230036h2.2723806v-6.95372218c0-1.64185126.9424621-2.70422539 2.4399294-2.70422539.4502876 0 .8482159.06438626 1.0367083.13950364v-2.17840372c-.1780205-.04292417-.4607593-.07511738-.7958569-.07511738-1.3403904 0-2.3875704.78336685-2.7436115 2.08182425h-.0418872v-1.9637827h-2.1676627zm11.6027547.1395037c-3.2881454 0-5.3825055-2.2964453-5.3825055-5.96646533 0-3.65928909 2.104832-5.97719661 5.3825055-5.97719661 3.2776734 0 5.3720333 2.30717639 5.3720333 5.97719661 0 3.67002003-2.0838882 5.96646533-5.3720333 5.96646533zm0-1.9315895c1.9268111 0 3.0682373-1.4916163 3.0682373-4.03487583 0-2.54325967-1.1414262-4.04560712-3.0682373-4.04560712-1.9268114 0-3.0787094 1.51307858-3.0787094 4.04560712 0 2.54325953 1.151898 4.03487583 3.0787094 4.03487583z" fill="#4a4a4a" transform="translate(44 19)"/><g fill="#5f6368" transform="translate(45 8.832031)"><path d="m3.958 6.661h-3.722v-5.967h.926v5.115h2.796z"/><path d="m5.0345.8267c0-.3105.2441-.5459.5747-.5459.3311 0 .5747.2354.5747.5459 0 .3057-.2437.5415-.5747.5415-.3306 0-.5747-.2359-.5747-.5415zm.1323 1.3315h.8848v4.5029h-.8848z"/><path d="m9.1307 2.0713c1.0132 0 1.6748.4712 1.7612 1.2651h-.8516c-.083-.3306-.4053-.5415-.9097-.5415-.4966 0-.8726.2354-.8726.5869 0 .269.2275.4385.7153.5503l.7485.1733c.856.1987 1.2568.5669 1.2568 1.2285 0 .8477-.7896 1.4141-1.8647 1.4141-1.0713 0-1.77-.4839-1.8486-1.2817h.8892c.1118.3472.4424.562.98.562.5542 0 .9473-.248.9473-.6079 0-.2686-.2109-.4424-.6621-.5498l-.7856-.1821c-.856-.2026-1.2529-.5869-1.2529-1.2568 0-.7984.7319-1.3604 1.7495-1.3604z"/><path d="m13.346 1.0371v1.1416h.9756v.7485h-.9756v2.3154c0 .4717.1943.6782.6367.6782.1362 0 .2148-.0083.3389-.0205v.7402c-.1445.0244-.3101.0454-.4839.0454-.9883 0-1.3809-.3477-1.3809-1.2158v-2.543h-.7153v-.7485h.7153v-1.1415z"/><path d="m19.2532 5.4453c-.2026.8066-.9224 1.3027-1.9517 1.3027-1.2905 0-2.0801-.8848-2.0801-2.3242 0-1.439.8062-2.3525 2.0757-2.3525 1.2529 0 2.0098.856 2.0098 2.27v.3101h-3.1802v.0498c.0293.7896.4883 1.29 1.1992 1.29.5376 0 .9058-.1943 1.0713-.5459zm-3.1264-1.4512h2.2744c-.0205-.707-.4507-1.1665-1.1079-1.1665-.6577 0-1.1167.4634-1.1665 1.1665z"/><path d="m20.4993 2.1582h.856v.7153h.0664c.2188-.5005.6655-.8022 1.3438-.8022 1.0049 0 1.5591.6035 1.5591 1.6748v2.915h-.8892v-2.6919c0-.7236-.3145-1.0835-.9717-1.0835-.6577 0-1.0752.4385-1.0752 1.1411v2.6343h-.8892z"/><path d="m27.9183 4.4077c0-1.4517.8105-2.3364 2.1255-2.3364 1.3105 0 2.1211.8848 2.1211 2.3364 0 1.4595-.8062 2.3403-2.1211 2.3403-1.3194 0-2.1255-.8808-2.1255-2.3403zm3.333 0c0-.9761-.4385-1.5469-1.2075-1.5469-.7734 0-1.2075.5708-1.2075 1.5469 0 .9839.4341 1.5503 1.2075 1.5503.769 0 1.2075-.5703 1.2075-1.5503z"/><path d="m33.3572 2.1582h.856v.7153h.0664c.2192-.5005.6655-.8022 1.3438-.8022 1.0049 0 1.5591.6035 1.5591 1.6748v2.915h-.8892v-2.6919c0-.7236-.3145-1.0835-.9717-1.0835-.6577 0-1.0752.4385-1.0752 1.1411v2.6343h-.8892z"/></g></g></svg>

<svg xmlns="http://www.w3.org/2000/svg" xmlns:xlink="http://www.w3.org/1999/xlink" width="167" height="44" version="1.1" viewBox="0 0 167 44"><title>badges/castro-badge</title><defs><linearGradient id="linearGradient-1" x1="0%" x2="0%" y1="0%" y2="100%"><stop offset="0%" stop-color="#00CCBF"/><stop offset="100%" stop-color="#00B265"/></linearGradient><linearGradient id="linearGradient-2" x1="0%" x2="0%" y1="0%" y2="100%"><stop offset="0%" stop-color="#151515"/><stop offset="100%" stop-color="#353535"/></linearGradient></defs><g id="Page-1" fill="none" fill-rule="evenodd" stroke="none" stroke-width="1"><g id="badges/castro-badge" fill-rule="nonzero" transform="translate(1.000000, 1.000000)"><g id="Group" fill="#FFF" stroke="#9AA0A6" stroke-width=".5"><g id="Rectangle"><rect width="165" height="42" x="0" y="0" rx="8"/></g></g><g id="../icons/castro-icon" transform="translate(7.000000, 7.000000)"><path id="path-1" fill="url(#linearGradient-1)" d="M9.76201953,5.46875e-05 L18.2379804,5.46875e-05 C21.0489179,5.46875e-05 22.4542774,5.46875e-05 23.9673164,0.478433593 C25.6191249,1.07966797 26.9203321,2.380875 27.5216211,4.03273829 C27.9999453,5.54566797 27.9999453,6.95108203 27.9999453,9.76201953 L27.9999453,18.2379804 C27.9999453,21.0489179 27.9999453,22.4542774 27.5216211,23.9673164 C26.9203321,25.6191251 25.6191249,26.9203321 23.9673164,27.5215118 C22.4542774,27.9999453 21.0489179,27.9999453 18.2379804,27.9999453 L9.76201953,27.9999453 C6.95108203,27.9999453 5.54566797,27.9999453 4.03273829,27.5215118 C2.380875,26.9203321 1.07966797,25.6191251 0.478433593,23.9673164 C5.46875e-05,22.4542774 5.46875e-05,21.0489179 5.46875e-05,18.2379804 L5.46875e-05,9.76201953 C5.46875e-05,6.95108203 5.46875e-05,5.54566797 0.478433593,4.03273829 C1.07966797,2.380875 2.380875,1.07966797 4.03273829,0.478433593 C5.54566797,5.46875e-05 6.95108203,5.46875e-05 9.76201953,5.46875e-05 L9.76201953,5.46875e-05"/><path id="path-2" fill="url(#linearGradient-2)" d="M14.0136719,1.83203125 C20.7414101,1.83203125 26.1953125,7.28057422 26.1953125,14.0016953 C26.1953125,20.7228437 20.7414101,26.1713867 14.0136719,26.1713867 C7.28593359,26.1713867 1.83203125,20.7228437 1.83203125,14.0016953 C1.83203125,7.28057422 7.28593359,1.83203125 14.0136719,1.83203125 Z"/><path id="path-3" fill="#FFF" d="M19.0824648,20.9418125 L17.0400508,18.1115977 C18.3227734,17.1735703 19.1560196,15.6585078 19.1560196,13.9487852 C19.1560196,11.1012617 16.8453633,8.79290234 13.994996,8.79290234 C11.1446562,8.79290234 8.834,11.1012617 8.834,13.9487852 C8.834,15.666 9.67457422,17.1868593 10.9668398,18.1239023 L8.92289453,20.9563047 C6.75016015,19.3852148 5.33635156,16.8311445 5.33635156,13.9468437 C5.33635156,9.17082031 9.21194531,5.29908203 13.9927266,5.29908203 C18.7735078,5.29908203 22.6491015,9.17082031 22.6491015,13.9468437 C22.6491015,16.8223125 21.2438789,19.3695196 19.0824648,20.9418125 Z M14.0119219,11.8599961 C15.1620547,11.8599961 16.0944492,12.791461 16.0944492,13.9404453 C16.0944492,15.089457 15.1620547,16.0208945 14.0119219,16.0208945 C12.8617618,16.0208945 11.9293945,15.089457 11.9293945,13.9404453 C11.9293945,12.791461 12.8617618,11.8599961 14.0119219,11.8599961 Z"/></g><g id="wordmark" fill="#4A4A4A" transform="translate(43.000000, 18.000000)"><path id="Castro" d="M6.92185976,16 C10.3984974,16 12.7651243,14.1220656 13.3410733,10.9242118 L11.0058619,10.9242118 C10.5346308,12.791415 9.03716345,13.8967135 6.93233163,13.8967135 C4.1573046,13.8967135 2.3980421,11.6109992 2.3980421,7.99463444 C2.3980421,4.41046273 4.17824818,2.10328634 6.92185976,2.10328634 C8.97433271,2.10328634 10.5869898,3.40174373 11.0058619,5.38698852 L13.3306016,5.38698852 C12.9326731,2.15694163 10.3461384,0 6.92185976,0 C2.70172442,0 -1.77635684e-14,3.09054325 -1.77635684e-14,7.99463444 C-1.77635684e-14,12.9309188 2.68078084,16 6.92185976,16 Z M19.1738661,14.0040241 C20.8598258,14.0040241 22.1373855,12.8987256 22.1373855,11.364185 L22.1373855,10.4520456 L19.3728302,10.6452045 C17.8230038,10.741784 17.0166752,11.3319919 17.0166752,12.362173 C17.0166752,13.3601609 17.8648909,14.0040241 19.1738661,14.0040241 Z M18.5665016,15.8604962 C16.294121,15.8604962 14.7233509,14.4869214 14.7233509,12.4050972 C14.7233509,10.3661971 16.2627055,9.18578124 19.069148,9.00335343 L22.1373855,8.82092546 L22.1373855,7.91951706 C22.1373855,6.58886645 21.268226,5.85915489 19.7498149,5.85915489 C18.5141426,5.85915489 17.6135678,6.51374907 17.4146036,7.52246806 L15.2888282,7.52246806 C15.3516589,5.4621059 17.2575266,3.93829636 19.8126458,3.93829636 C22.5876729,3.93829636 24.3783506,5.44064381 24.3783506,7.74782021 L24.3783506,15.7424546 L22.2106881,15.7424546 L22.2106881,13.800134 L22.1583291,13.800134 C21.530021,15.0663984 20.116328,15.8604962 18.5665016,15.8604962 Z M26.4727108,7.40442651 C26.4727108,9.01408439 27.4884753,10.0871898 29.5409481,10.6022804 L31.5724774,11.1173709 C32.7662626,11.4285714 33.21655,11.8148892 33.21655,12.5553319 C33.21655,13.4996645 32.326447,14.1006036 30.9127539,14.1006036 C29.4676455,14.1006036 28.5880143,13.4889335 28.4099938,12.372904 L26.1690284,12.372904 C26.3365772,14.4761905 28.1481988,15.8819583 30.7975642,15.8819583 C33.5516476,15.8819583 35.4784588,14.4439972 35.4784588,12.362173 C35.4784588,10.6452045 34.630243,9.79745125 32.3369188,9.22870558 L30.4519947,8.76727016 C29.2477378,8.46680081 28.6822605,7.98390331 28.6822605,7.27565384 C28.6822605,6.35278335 29.5409481,5.74111334 30.8289796,5.74111334 C32.1274827,5.74111334 32.9966422,6.38497656 33.0908884,7.41515764 L35.2271356,7.41515764 C35.1747766,5.38698852 33.3736269,3.94902749 30.8813385,3.94902749 C28.2633885,3.94902749 26.4727108,5.35479547 26.4727108,7.40442651 Z M38.0021627,1.47015424 L38.0021627,4.08853112 L36.4313925,4.08853112 L36.4313925,5.92354114 L38.0021627,5.92354114 L38.0021627,12.6733735 C38.0021627,14.9268946 38.8817938,15.817572 41.1541745,15.817572 C41.6463492,15.817572 42.1804108,15.7639167 42.4317341,15.6995305 L42.4317341,13.8645205 C42.2851289,13.8859825 41.8976723,13.9181756 41.6568209,13.9181756 C40.7038871,13.9181756 40.2640714,13.4460094 40.2640714,12.4372904 L40.2640714,5.92354114 L42.4422058,5.92354114 L42.4422058,4.08853112 L40.2640714,4.08853112 L40.2640714,1.47015424 L38.0021627,1.47015424 Z M44.3585453,15.7424546 L46.6309259,15.7424546 L46.6309259,8.78873242 C46.6309259,7.14688116 47.573388,6.08450703 49.0708553,6.08450703 C49.5211429,6.08450703 49.9190712,6.14889329 50.1075636,6.22401067 L50.1075636,4.04560695 C49.9295431,4.00268278 49.6468043,3.97048957 49.3117067,3.97048957 C47.9713163,3.97048957 46.9241363,4.75385642 46.5680952,6.05231382 L46.526208,6.05231382 L46.526208,4.08853112 L44.3585453,4.08853112 L44.3585453,15.7424546 Z M55.9613,15.8819583 C52.6731546,15.8819583 50.5787945,13.585513 50.5787945,9.91549297 C50.5787945,6.25620388 52.6836265,3.93829636 55.9613,3.93829636 C59.2389734,3.93829636 61.3333333,6.24547275 61.3333333,9.91549297 C61.3333333,13.585513 59.2494451,15.8819583 55.9613,15.8819583 Z M55.9613,13.9503688 C57.8881111,13.9503688 59.0295373,12.4587525 59.0295373,9.91549297 C59.0295373,7.3722333 57.8881111,5.86988585 55.9613,5.86988585 C54.0344886,5.86988585 52.8825906,7.38296443 52.8825906,9.91549297 C52.8825906,12.4587525 54.0344886,13.9503688 55.9613,13.9503688 Z"/></g><g id="Listen-On" fill="#5F6368" transform="translate(44.000000, 7.832031)"><polygon id="Path" points="3.958 6.661 .236 6.661 .236 .694 1.162 .694 1.162 5.809 3.958 5.809"/><path id="Shape" d="M5.0345,0.8267 C5.0345,0.5162 5.2786,0.2808 5.6092,0.2808 C5.9403,0.2808 6.1839,0.5162 6.1839,0.8267 C6.1839,1.1324 5.9402,1.3682 5.6092,1.3682 C5.2786,1.3682 5.0345,1.1323 5.0345,0.8267 Z M5.1668,2.1582 L6.0516,2.1582 L6.0516,6.6611 L5.1668,6.6611 L5.1668,2.1582 Z"/><path id="Path" d="M9.1307,2.0713 C10.1439,2.0713 10.8055,2.5425 10.8919,3.3364 L10.0403,3.3364 C9.9573,3.0058 9.635,2.7949 9.1306,2.7949 C8.634,2.7949 8.258,3.0303 8.258,3.3818 C8.258,3.6508 8.4855,3.8203 8.9733,3.9321 L9.7218,4.1054 C10.5778,4.3041 10.9786,4.6723 10.9786,5.3339 C10.9786,6.1816 10.189,6.748 9.1139,6.748 C8.0426,6.748 7.3439,6.2641 7.2653,5.4663 L8.1545,5.4663 C8.2663,5.8135 8.5969,6.0283 9.1345,6.0283 C9.6887,6.0283 10.0818,5.7803 10.0818,5.4204 C10.0818,5.1518 9.8709,4.978 9.4197,4.8706 L8.6341,4.6885 C7.7781,4.4859 7.3812,4.1016 7.3812,3.4317 C7.3812,2.6333 8.1131,2.0713 9.1307,2.0713 Z"/><path id="Path" d="M13.346,1.0371 L13.346,2.1787 L14.3216,2.1787 L14.3216,2.9272 L13.346,2.9272 L13.346,5.2426 C13.346,5.7143 13.5403,5.9208 13.9827,5.9208 C14.1189,5.9208 14.1975,5.9125 14.3216,5.9003 L14.3216,6.6405 C14.1771,6.6649 14.0115,6.6859 13.8377,6.6859 C12.8494,6.6859 12.4568,6.3382 12.4568,5.4701 L12.4568,2.9271 L11.7415,2.9271 L11.7415,2.1786 L12.4568,2.1786 L12.4568,1.0371 L13.346,1.0371 Z"/><path id="Shape" d="M19.2532,5.4453 C19.0506,6.2519 18.3308,6.748 17.3015,6.748 C16.011,6.748 15.2214,5.8632 15.2214,4.4238 C15.2214,2.9848 16.0276,2.0713 17.2971,2.0713 C18.55,2.0713 19.3069,2.9273 19.3069,4.3413 L19.3069,4.6514 L16.1267,4.6514 L16.1267,4.7012 C16.156,5.4908 16.615,5.9912 17.3259,5.9912 C17.8635,5.9912 18.2317,5.7969 18.3972,5.4453 L19.2532,5.4453 Z M16.1268,3.9941 L18.4012,3.9941 C18.3807,3.2871 17.9505,2.8276 17.2933,2.8276 C16.6356,2.8276 16.1766,3.291 16.1268,3.9941 Z"/><path id="Path" d="M20.4993,2.1582 L21.3553,2.1582 L21.3553,2.8735 L21.4217,2.8735 C21.6405,2.373 22.0872,2.0713 22.7655,2.0713 C23.7704,2.0713 24.3246,2.6748 24.3246,3.7461 L24.3246,6.6611 L23.4354,6.6611 L23.4354,3.9692 C23.4354,3.2456 23.1209,2.8857 22.4637,2.8857 C21.806,2.8857 21.3885,3.3242 21.3885,4.0268 L21.3885,6.6611 L20.4993,6.6611 L20.4993,2.1582 Z"/><path id="Shape" d="M27.9183,4.4077 C27.9183,2.956 28.7288,2.0713 30.0438,2.0713 C31.3543,2.0713 32.1649,2.9561 32.1649,4.4077 C32.1649,5.8672 31.3587,6.748 30.0438,6.748 C28.7244,6.748 27.9183,5.8672 27.9183,4.4077 Z M31.2513,4.4077 C31.2513,3.4316 30.8128,2.8608 30.0438,2.8608 C29.2704,2.8608 28.8363,3.4316 28.8363,4.4077 C28.8363,5.3916 29.2704,5.958 30.0438,5.958 C30.8128,5.958 31.2513,5.3877 31.2513,4.4077 Z"/><path id="Path" d="M33.3572,2.1582 L34.2132,2.1582 L34.2132,2.8735 L34.2796,2.8735 C34.4988,2.373 34.9451,2.0713 35.6234,2.0713 C36.6283,2.0713 37.1825,2.6748 37.1825,3.7461 L37.1825,6.6611 L36.2933,6.6611 L36.2933,3.9692 C36.2933,3.2456 35.9788,2.8857 35.3216,2.8857 C34.6639,2.8857 34.2464,3.3242 34.2464,4.0268 L34.2464,6.6611 L33.3572,6.6611 L33.3572,2.1582 Z"/></g></g></g></svg>
